modules/hawcons-stroke/icons/icon-18-weights.svg

<?xml version="1.0" encoding="UTF-8" standalone="no"?>
<svg width="32px" height="32px" viewBox="0 0 32 32" version="1.1" xmlns="http://www.w3.org/2000/svg" xmlns:xlink="http://www.w3.org/1999/xlink" xmlns:sketch="http://www.bohemiancoding.com/sketch/ns">
    <!-- Generator: Sketch 3.0.3 (7891) - http://www.bohemiancoding.com/sketch -->
    <title>icon 18 weights</title>
    <desc>Created with Sketch.</desc>
    <defs></defs>
    <g id="Page-1" stroke="none" stroke-width="1" fill="none" fill-rule="evenodd" sketch:type="MSPage">
        <g id="icon-18-weights" sketch:type="MSArtboardGroup" fill="#929292">
            <path d="M23,17 L10,17 L10,20.4935615 C10,21.3284594 9.32842712,22 8.5,22 C7.66579723,22 7,21.3255445 7,20.4935615 L7,19.9146719 C6.84361054,19.9699401 6.67531771,20 6.5,20 C5.66579723,20 5,19.3276769 5,18.4983244 L5,17 L3,17 L3,16 L5,16 L5,14.5016756 C5,13.6711894 5.67157288,13 6.5,13 C6.67568467,13 6.84390003,13.0298196 7,13.0846457 L7,13.0846457 L7,12.5064385 C7,11.6715406 7.67157288,11 8.5,11 C9.33420277,11 10,11.6744555 10,12.5064385 L10,16 L23,16 L23,12.5064385 C23,11.6715406 23.6715729,11 24.5,11 C25.3342028,11 26,11.6744555 26,12.5064385 L26,13.0853281 C26.1563895,13.0300599 26.3246823,13 26.5,13 C27.3342028,13 28,13.6723231 28,14.5016756 L28,16 L30,16 L30,17 L28,17 L28,18.4983244 C28,19.3288106 27.3284271,20 26.5,20 C26.3243153,20 26.1561,19.9701804 26,19.9153543 L26,20.4935615 C26,21.3284594 25.3284271,22 24.5,22 C23.6657972,22 23,21.3255445 23,20.4935615 L23,17 L23,17 Z M26.5,14 C26.2238576,14 26,14.2148438 26,14.4976988 L26,18.5023012 C26,18.7771727 26.2319336,19 26.5,19 C26.7761424,19 27,18.7851562 27,18.5023012 L27,14.4976988 C27,14.2228273 26.7680664,14 26.5,14 L26.5,14 Z M6.5,14 C6.22385763,14 6,14.2148438 6,14.4976988 L6,18.5023012 C6,18.7771727 6.23193359,19 6.5,19 C6.77614237,19 7,18.7851562 7,18.5023012 L7,14.4976988 C7,14.2228273 6.76806641,14 6.5,14 L6.5,14 Z M24.5,12 C24.2238576,12 24,12.2224731 24,12.5096658 L24,20.4903342 C24,20.7718148 24.2319336,21 24.5,21 C24.7761424,21 25,20.7775269 25,20.4903342 L25,12.5096658 C25,12.2281852 24.7680664,12 24.5,12 L24.5,12 Z M8.5,12 C8.22385763,12 8,12.2224731 8,12.5096658 L8,20.4903342 C8,20.7718148 8.23193359,21 8.5,21 C8.77614237,21 9,20.7775269 9,20.4903342 L9,12.5096658 C9,12.2281852 8.76806641,12 8.5,12 L8.5,12 Z" id="weights" sketch:type="MSShapeGroup"></path>
        </g>
    </g>
</svg>

<svg width="32" height="32" xmlns="http://www.w3.org/2000/svg"><path d="M23 17H10v3.494a1.5 1.5 0 1 1-3 0v-.58a1.497 1.497 0 0 1-2-1.416V17H3v-1h2v-1.498a1.5 1.5 0 0 1 2-1.417v-.579a1.5 1.5 0 1 1 3 0V16h13v-3.494a1.5 1.5 0 1 1 3 0v.58a1.497 1.497 0 0 1 2 1.416V16h2v1h-2v1.498a1.5 1.5 0 0 1-2 1.417v.579a1.5 1.5 0 1 1-3 0V17zm3.5-3c-.276 0-.5.215-.5.498v4.004c0 .275.232.498.5.498.276 0 .5-.215.5-.498v-4.004a.504.504 0 0 0-.5-.498zm-20 0c-.276 0-.5.215-.5.498v4.004c0 .275.232.498.5.498.276 0 .5-.215.5-.498v-4.004A.504.504 0 0 0 6.5 14zm18-2c-.276 0-.5.222-.5.51v7.98c0 .282.232.51.5.51.276 0 .5-.222.5-.51v-7.98a.51.51 0 0 0-.5-.51zm-16 0c-.276 0-.5.222-.5.51v7.98c0 .282.232.51.5.51.276 0 .5-.222.5-.51v-7.98a.51.51 0 0 0-.5-.51z" fill="#929292" fill-rule="evenodd"/></svg>
